X: 1
T: the Kerfunten
C: Hammy Hamilton
R: jig
S: Fiddle Hell Online 2021-11-4
Z: 2022 John Chambers <jc:trillian.mit.edu>
M: 6/8
L: 1/8
K: D
|: E |\
"D"F2F FED | FGA "G"B2d | "D"A2A [1,3 BAF | "A"EFE ED :|[2,4 BAG | "A"EFE "D"D2 :|
|: A |\
"Bm"d2d def | "G"B2B BAG | "D"d2d def | fed "A"e2f |
"Bm"d2d def | "G"B2B BdB | "D"AFA dAF | "A"EFE [1 "D"DF :|2 "D"D2 |]
